svg/brand/instagram.svg

<svg width="16" height="16" viewBox="0 0 16 16" fill="none" xmlns="http://www.w3.org/2000/svg">
<path d="M7.99997 1.72361C10.0444 1.72361 10.2864 1.73161 11.0932 1.7686C11.5787 1.77429 12.0596 1.86357 12.5148 2.03253C12.8485 2.15319 13.1506 2.34765 13.3986 2.60138C13.653 2.84822 13.8485 3.14928 13.9704 3.48215C14.1394 3.93736 14.2287 4.41826 14.2343 4.90378C14.2713 5.71057 14.2793 5.95251 14.2793 7.99697C14.2793 10.0414 14.2713 10.2834 14.2343 11.0902C14.2287 11.5757 14.1394 12.0566 13.9704 12.5118C13.8436 12.8422 13.6488 13.1423 13.3986 13.3926C13.1483 13.6428 12.8482 13.8376 12.5178 13.9644C12.0626 14.1334 11.5817 14.2227 11.0962 14.2283C10.2894 14.2653 10.0474 14.2733 8.00297 14.2733C5.9585 14.2733 5.71657 14.2653 4.90978 14.2283C4.42426 14.2227 3.94335 14.1334 3.48815 13.9644C3.1537 13.845 2.85056 13.6516 2.60138 13.3986C2.34694 13.1517 2.15147 12.8507 2.02953 12.5178C1.86057 12.0626 1.77129 11.5817 1.7656 11.0962C1.73161 10.2864 1.72361 10.0444 1.72361 7.99997C1.72361 5.95551 1.73161 5.71357 1.7686 4.90678C1.77429 4.42126 1.86357 3.94036 2.03253 3.48515C2.15319 3.15149 2.34765 2.84939 2.60138 2.60138C2.84822 2.34694 3.14928 2.15147 3.48215 2.02953C3.93736 1.86057 4.41826 1.77129 4.90378 1.7656C5.71357 1.73161 5.95551 1.72361 7.99997 1.72361ZM7.99997 0.344971C5.92051 0.344971 5.66058 0.352969 4.8438 0.390959C4.20858 0.403281 3.5801 0.523636 2.98528 0.746866C2.47436 0.938611 2.01164 1.23993 1.62964 1.62964C1.23993 2.01164 0.938611 2.47436 0.746866 2.98528C0.523636 3.5801 0.403281 4.20858 0.390959 4.8438C0.352969 5.66058 0.344971 5.92051 0.344971 7.99997C0.344971 10.0794 0.352969 10.3394 0.390959 11.1561C0.403281 11.7914 0.523636 12.4198 0.746866 13.0147C0.938611 13.5256 1.23993 13.9883 1.62964 14.3703C2.01164 14.76 2.47436 15.0613 2.98528 15.2531C3.5801 15.4763 4.20858 15.5967 4.8438 15.609C5.66058 15.647 5.92051 15.655 7.99997 15.655C10.0794 15.655 10.3394 15.647 11.1561 15.609C11.7914 15.5967 12.4198 15.4763 13.0147 15.2531C13.5231 15.0565 13.9849 14.7558 14.3703 14.3703C14.7558 13.9849 15.0565 13.5231 15.2531 13.0147C15.4763 12.4198 15.5967 11.7914 15.609 11.1561C15.647 10.3394 15.655 10.0794 15.655 7.99997C15.655 5.92051 15.647 5.66058 15.609 4.8438C15.5967 4.20858 15.4763 3.5801 15.2531 2.98528C15.0613 2.47436 14.76 2.01164 14.3703 1.62964C13.9883 1.23993 13.5256 0.938611 13.0147 0.746866C12.4198 0.523636 11.7914 0.403281 11.1561 0.390959C10.3394 0.352969 10.0794 0.344971 7.99997 0.344971Z" fill="black"/>
<path d="M7.99997 4.069C7.2225 4.069 6.46248 4.29955 5.81604 4.73149C5.16959 5.16343 4.66575 5.77736 4.36823 6.49565C4.0707 7.21394 3.99285 8.00433 4.14453 8.76687C4.29621 9.5294 4.6706 10.2298 5.22035 10.7796C5.77011 11.3293 6.47054 11.7037 7.23308 11.8554C7.99561 12.0071 8.786 11.9292 9.50429 11.6317C10.2226 11.3342 10.8365 10.8303 11.2685 10.1839C11.7004 9.53746 11.9309 8.77744 11.9309 7.99997C11.9311 7.48371 11.8295 6.97248 11.632 6.4955C11.4345 6.01851 11.1449 5.58511 10.7799 5.22006C10.4148 4.85501 9.98143 4.56546 9.50444 4.36796C9.02746 4.17045 8.51623 4.06887 7.99997 4.069ZM7.99997 10.5513C7.49537 10.5513 7.00209 10.4017 6.58253 10.1213C6.16296 9.84098 5.83595 9.44252 5.64285 8.97632C5.44974 8.51013 5.39922 7.99714 5.49766 7.50223C5.5961 7.00732 5.8391 6.55272 6.19591 6.19591C6.55272 5.8391 7.00732 5.5961 7.50223 5.49766C7.99714 5.39922 8.51013 5.44974 8.97632 5.64285C9.44252 5.83595 9.84098 6.16296 10.1213 6.58253C10.4017 7.00209 10.5513 7.49537 10.5513 7.99997C10.5514 8.33505 10.4855 8.66688 10.3574 8.97648C10.2292 9.28608 10.0413 9.56739 9.80433 9.80433C9.56739 10.0413 9.28608 10.2292 8.97648 10.3574C8.66688 10.4855 8.33505 10.5514 7.99997 10.5513Z" fill="black"/>
<path d="M12.0869 4.8318C12.5943 4.8318 13.0057 4.42046 13.0057 3.91304C13.0057 3.40562 12.5943 2.99428 12.0869 2.99428C11.5795 2.99428 11.1681 3.40562 11.1681 3.91304C11.1681 4.42046 11.5795 4.8318 12.0869 4.8318Z" fill="black"/>
</svg>

<svg id="Layer_1" data-name="Layer 1" xmlns="http://www.w3.org/2000/svg" viewBox="0 0 16 16"><title>instagram</title><path d="M8,1.722c2.045,0,2.287.008,3.094.045a4.229,4.229,0,0,1,1.422.264A2.357,2.357,0,0,1,13.4,2.6a2.357,2.357,0,0,1,.572.881,4.229,4.229,0,0,1,.264,1.422c.037.807.045,1.049.045,3.094s-.008,2.287-.045,3.094a4.229,4.229,0,0,1-.264,1.422,2.525,2.525,0,0,1-1.453,1.453,4.229,4.229,0,0,1-1.422.264c-.807.037-1.049.045-3.094.045s-2.287-.008-3.094-.045a4.229,4.229,0,0,1-1.422-.264A2.357,2.357,0,0,1,2.6,13.4a2.357,2.357,0,0,1-.572-.881,4.229,4.229,0,0,1-.264-1.422C1.73,10.287,1.722,10.045,1.722,8s.008-2.287.045-3.094a4.229,4.229,0,0,1,.264-1.422A2.357,2.357,0,0,1,2.6,2.6a2.357,2.357,0,0,1,.881-.572,4.229,4.229,0,0,1,1.422-.264C5.713,1.73,5.955,1.722,8,1.722M8,.343c-2.08,0-2.34.008-3.157.046A5.6,5.6,0,0,0,2.984.745a3.738,3.738,0,0,0-1.356.883A3.738,3.738,0,0,0,.745,2.984,5.6,5.6,0,0,0,.389,4.843C.351,5.66.343,5.92.343,8s.008,2.34.046,3.157a5.6,5.6,0,0,0,.356,1.859,3.738,3.738,0,0,0,.883,1.356,3.738,3.738,0,0,0,1.356.883,5.6,5.6,0,0,0,1.859.356c.817.038,1.077.046,3.157.046s2.34-.008,3.157-.046a5.6,5.6,0,0,0,1.859-.356,3.914,3.914,0,0,0,2.239-2.239,5.6,5.6,0,0,0,.356-1.859c.038-.817.046-1.077.046-3.157s-.008-2.34-.046-3.157a5.6,5.6,0,0,0-.356-1.859,3.738,3.738,0,0,0-.883-1.356A3.738,3.738,0,0,0,13.016.745,5.6,5.6,0,0,0,11.157.389C10.34.351,10.08.343,8,.343Z"/><path d="M8,4.068A3.932,3.932,0,1,0,11.932,8,3.931,3.931,0,0,0,8,4.068Zm0,6.484A2.552,2.552,0,1,1,10.552,8,2.551,2.551,0,0,1,8,10.552Z"/><circle cx="12.088" cy="3.912" r="0.919"/></svg>
